X:24
T:Santiana or The Plains of Mexico (c)
M:C|
L:1/8
Q:1/4=120
K:Dm
D2|\
G3A B2cc|d2cB c2f2|d4 G3A|B2 c4 dd|
c2c2 B2GG|A2FF D2dc|B2G2 A2D2|d2d2 d2||
